static/img/kroki/dcf3181e4b805467b2dde1db6f1808a8.svg

<?xml version="1.0" encoding="us-ascii" standalone="no"?><svg xmlns="http://www.w3.org/2000/svg" xmlns:xlink="http://www.w3.org/1999/xlink" contentStyleType="text/css" height="927px" preserveAspectRatio="none" style="width:670px;height:927px;" version="1.1" viewBox="0 0 670 927" width="670px" zoomAndPan="magnify"><defs/><g><!--class aws_cloudfront_encryption_entity--><g id="elem_aws_cloudfront_encryption_entity"><rect codeLine="23" fill="#3D176E" height="126.6797" id="aws_cloudfront_encryption_entity" rx="2.5" ry="2.5" style="stroke:#000D19;stroke-width:0.5;" width="326" x="172" y="794.23"/><ellipse cx="187" cy="814.1245" fill="#ADD1B2" rx="11" ry="11" style="stroke:#181818;stroke-width:1.0;"/><path d="M189.9688,819.7652 Q189.3906,820.062 188.75,820.2027 Q188.1094,820.3589 187.4063,820.3589 Q184.9063,820.3589 183.5781,818.7183 Q182.2656,817.062 182.2656,813.937 Q182.2656,810.812 183.5781,809.1558 Q184.9063,807.4995 187.4063,807.4995 Q188.1094,807.4995 188.75,807.6558 Q189.4063,807.812 189.9688,808.1089 L189.9688,810.8277 Q189.3438,810.2495 188.75,809.9839 Q188.1563,809.7027 187.5313,809.7027 Q186.1875,809.7027 185.5,810.7808 Q184.8125,811.8433 184.8125,813.937 Q184.8125,816.0308 185.5,817.1089 Q186.1875,818.1714 187.5313,818.1714 Q188.1563,818.1714 188.75,817.9058 Q189.3438,817.6245 189.9688,817.0464 L189.9688,819.7652 Z " fill="#000000"/><text fill="#D9B8FF" font-family="Helvetica" font-size="17" lengthAdjust="spacing" textLength="284" x="206" y="820.0098">aws_cloudfront_encryption_entity</text><line style="stroke:#000D19;stroke-width:0.5;" x1="173" x2="497" y1="834.0191" y2="834.0191"/><text fill="#D9B8FF" font-family="sans-serif" font-size="14" font-weight="bold" lengthAdjust="spacing" textLength="108" x="183" y="856.0142">field_patterns</text><text fill="#D9B8FF" font-family="sans-serif" font-size="14" lengthAdjust="spacing" textLength="58" x="291" y="856.0142">: string[]</text><text fill="#D9B8FF" font-family="sans-serif" font-size="14" font-weight="bold" lengthAdjust="spacing" textLength="88" x="183" y="882.3111">provider_id</text><text fill="#D9B8FF" font-family="sans-serif" font-size="14" lengthAdjust="spacing" textLength="48" x="271" y="882.3111">: string</text><text fill="#D9B8FF" font-family="sans-serif" font-size="14" font-weight="bold" lengthAdjust="spacing" textLength="103" x="183" y="908.6079">public_key_id</text><text fill="#D9B8FF" font-family="sans-serif" font-size="14" lengthAdjust="spacing" textLength="48" x="286" y="908.6079">: string</text></g><!--class aws_cloudfront_field_level_encryption_profile--><g id="elem_aws_cloudfront_field_level_encryption_profile"><rect codeLine="28" fill="#3D176E" height="100.3828" id="aws_cloudfront_field_level_encryption_profile" rx="2.5" ry="2.5" style="stroke:#000D19;stroke-width:0.5;" width="656" x="7" y="633.85"/><ellipse cx="135.25" cy="653.7445" fill="#ADD1B2" rx="11" ry="11" style="stroke:#181818;stroke-width:1.0;"/><path d="M138.2188,659.3852 Q137.6406,659.682 137,659.8227 Q136.3594,659.9789 135.6563,659.9789 Q133.1563,659.9789 131.8281,658.3383 Q130.5156,656.682 130.5156,653.557 Q130.5156,650.432 131.8281,648.7758 Q133.1563,647.1195 135.6563,647.1195 Q136.3594,647.1195 137,647.2758 Q137.6563,647.432 138.2188,647.7289 L138.2188,650.4477 Q137.5938,649.8695 137,649.6039 Q136.4063,649.3227 135.7813,649.3227 Q134.4375,649.3227 133.75,650.4008 Q133.0625,651.4633 133.0625,653.557 Q133.0625,655.6508 133.75,656.7289 Q134.4375,657.7914 135.7813,657.7914 Q136.4063,657.7914 137,657.5258 Q137.5938,657.2445 138.2188,656.6664 L138.2188,659.3852 Z " fill="#000000"/><text fill="#D9B8FF" font-family="Helvetica" font-size="17" lengthAdjust="spacing" textLength="381" x="160.75" y="659.6298">aws_cloudfront_field_level_encryption_profile</text><line style="stroke:#000D19;stroke-width:0.5;" x1="8" x2="662" y1="673.6391" y2="673.6391"/><text fill="#D9B8FF" font-family="sans-serif" font-size="14" font-weight="bold" lengthAdjust="spacing" textLength="308" x="18" y="695.6342">field_level_encryption_profile_comment</text><text fill="#D9B8FF" font-family="sans-serif" font-size="14" lengthAdjust="spacing" textLength="48" x="326" y="695.6342">: string</text><text fill="#D9B8FF" font-family="sans-serif" font-size="14" font-weight="bold" lengthAdjust="spacing" textLength="386" x="18" y="721.9311">field_level_encryption_profile_encryption_entities</text><text fill="#D9B8FF" font-family="sans-serif" font-size="14" lengthAdjust="spacing" textLength="248" x="404" y="721.9311">: aws_cloudfront_encryption_entity[]</text></g><!--class aws_resource--><g id="elem_aws_resource"><rect codeLine="32" fill="#3D176E" height="74.0859" id="aws_resource" rx="2.5" ry="2.5" style="stroke:#000D19;stroke-width:0.5;" width="155" x="257.5" y="438.76"/><ellipse cx="272.5" cy="458.6545" fill="#ADD1B2" rx="11" ry="11" style="stroke:#181818;stroke-width:1.0;"/><path d="M275.4688,464.2952 Q274.8906,464.592 274.25,464.7327 Q273.6094,464.8889 272.9063,464.8889 Q270.4063,464.8889 269.0781,463.2483 Q267.7656,461.592 267.7656,458.467 Q267.7656,455.342 269.0781,453.6858 Q270.4063,452.0295 272.9063,452.0295 Q273.6094,452.0295 274.25,452.1858 Q274.9063,452.342 275.4688,452.6389 L275.4688,455.3577 Q274.8438,454.7795 274.25,454.5139 Q273.6563,454.2327 273.0313,454.2327 Q271.6875,454.2327 271,455.3108 Q270.3125,456.3733 270.3125,458.467 Q270.3125,460.5608 271,461.6389 Q271.6875,462.7014 273.0313,462.7014 Q273.6563,462.7014 274.25,462.4358 Q274.8438,462.1545 275.4688,461.5764 L275.4688,464.2952 Z " fill="#000000"/><text fill="#D9B8FF" font-family="Helvetica" font-size="17" lengthAdjust="spacing" textLength="113" x="291.5" y="464.5398">aws_resource</text><line style="stroke:#000D19;stroke-width:0.5;" x1="258.5" x2="411.5" y1="478.5491" y2="478.5491"/><text fill="#D9B8FF" font-family="sans-serif" font-size="14" font-weight="bold" lengthAdjust="spacing" textLength="26" x="268.5" y="500.5442">arn</text><text fill="#D9B8FF" font-family="sans-serif" font-size="14" lengthAdjust="spacing" textLength="48" x="294.5" y="500.5442">: string</text></g><!--class resource--><g id="elem_resource"><rect codeLine="35" fill="#3D176E" height="310.7578" id="resource" rx="2.5" ry="2.5" style="stroke:#000D19;stroke-width:0.5;" width="227" x="221.5" y="7"/><ellipse cx="290.25" cy="26.8945" fill="#ADD1B2" rx="11" ry="11" style="stroke:#181818;stroke-width:1.0;"/><path d="M293.2188,32.5352 Q292.6406,32.832 292,32.9727 Q291.3594,33.1289 290.6563,33.1289 Q288.1563,33.1289 286.8281,31.4883 Q285.5156,29.832 285.5156,26.707 Q285.5156,23.582 286.8281,21.9258 Q288.1563,20.2695 290.6563,20.2695 Q291.3594,20.2695 292,20.4258 Q292.6563,20.582 293.2188,20.8789 L293.2188,23.5977 Q292.5938,23.0195 292,22.7539 Q291.4063,22.4727 290.7813,22.4727 Q289.4375,22.4727 288.75,23.5508 Q288.0625,24.6133 288.0625,26.707 Q288.0625,28.8008 288.75,29.8789 Q289.4375,30.9414 290.7813,30.9414 Q291.4063,30.9414 292,30.6758 Q292.5938,30.3945 293.2188,29.8164 L293.2188,32.5352 Z " fill="#000000"/><text fill="#D9B8FF" font-family="Helvetica" font-size="17" lengthAdjust="spacing" textLength="71" x="315.75" y="32.7798">resource</text><line style="stroke:#000D19;stroke-width:0.5;" x1="222.5" x2="447.5" y1="46.7891" y2="46.7891"/><text fill="#D9B8FF" font-family="sans-serif" font-size="14" font-weight="bold" lengthAdjust="spacing" textLength="29" x="232.5" y="68.7842">age</text><text fill="#D9B8FF" font-family="sans-serif" font-size="14" lengthAdjust="spacing" textLength="66" x="261.5" y="68.7842">: duration</text><text fill="#D9B8FF" font-family="sans-serif" font-size="14" font-weight="bold" lengthAdjust="spacing" textLength="43" x="232.5" y="95.0811">atime</text><text fill="#D9B8FF" font-family="sans-serif" font-size="14" lengthAdjust="spacing" textLength="70" x="275.5" y="95.0811">: datetime</text><text fill="#D9B8FF" font-family="sans-serif" font-size="14" font-weight="bold" lengthAdjust="spacing" textLength="43" x="232.5" y="121.3779">ctime</text><text fill="#D9B8FF" font-family="sans-serif" font-size="14" lengthAdjust="spacing" textLength="70" x="275.5" y="121.3779">: datetime</text><text fill="#D9B8FF" font-family="sans-serif" font-size="14" font-weight="bold" lengthAdjust="spacing" textLength="14" x="232.5" y="147.6748">id</text><text fill="#D9B8FF" font-family="sans-serif" font-size="14" lengthAdjust="spacing" textLength="48" x="246.5" y="147.6748">: string</text><text fill="#D9B8FF" font-family="sans-serif" font-size="14" font-weight="bold" lengthAdjust="spacing" textLength="33" x="232.5" y="173.9717">kind</text><text fill="#D9B8FF" font-family="sans-serif" font-size="14" lengthAdjust="spacing" textLength="48" x="265.5" y="173.9717">: string</text><text fill="#D9B8FF" font-family="sans-serif" font-size="14" font-weight="bold" lengthAdjust="spacing" textLength="90" x="232.5" y="200.2686">last_access</text><text fill="#D9B8FF" font-family="sans-serif" font-size="14" lengthAdjust="spacing" textLength="66" x="322.5" y="200.2686">: duration</text><text fill="#D9B8FF" font-family="sans-serif" font-size="14" font-weight="bold" lengthAdjust="spacing" textLength="90" x="232.5" y="226.5654">last_update</text><text fill="#D9B8FF" font-family="sans-serif" font-size="14" lengthAdjust="spacing" textLength="66" x="322.5" y="226.5654">: duration</text><text fill="#D9B8FF" font-family="sans-serif" font-size="14" font-weight="bold" lengthAdjust="spacing" textLength="48" x="232.5" y="252.8623">mtime</text><text fill="#D9B8FF" font-family="sans-serif" font-size="14" lengthAdjust="spacing" textLength="70" x="280.5" y="252.8623">: datetime</text><text fill="#D9B8FF" font-family="sans-serif" font-size="14" font-weight="bold" lengthAdjust="spacing" textLength="43" x="232.5" y="279.1592">name</text><text fill="#D9B8FF" font-family="sans-serif" font-size="14" lengthAdjust="spacing" textLength="48" x="275.5" y="279.1592">: string</text><text fill="#D9B8FF" font-family="sans-serif" font-size="14" font-weight="bold" lengthAdjust="spacing" textLength="34" x="232.5" y="305.4561">tags</text><text fill="#D9B8FF" font-family="sans-serif" font-size="14" lengthAdjust="spacing" textLength="171" x="266.5" y="305.4561">: dictionary[string, string]</text></g><!--link aws_cloudfront_field_level_encryption_profile to aws_cloudfront_encryption_entity--><g id="link_aws_cloudfront_field_level_encryption_profile_aws_cloudfront_encryption_entity"><path codeLine="47" d="M335,734.65 C335,753.16 335,768.41 335,787.93 " fill="none" id="aws_cloudfront_field_level_encryption_profile-to-aws_cloudfront_encryption_entity" style="stroke:#FFAF37;stroke-width:2.0;"/><polygon fill="#FFAF37" points="335,793.93,339,784.93,335,788.93,331,784.93,335,793.93" style="stroke:#FFAF37;stroke-width:2.0;"/></g><!--reverse link aws_resource to aws_cloudfront_field_level_encryption_profile--><g id="link_aws_resource_aws_cloudfront_field_level_encryption_profile"><path codeLine="48" d="M335,531.2 C335,564.62 335,596.42 335,633.47 " fill="none" id="aws_resource-backto-aws_cloudfront_field_level_encryption_profile" style="stroke:#FFAF37;stroke-width:2.0;"/><polygon fill="none" points="335,513.2,329,531.2,341,531.2,335,513.2" style="stroke:#FFAF37;stroke-width:2.0;"/></g><!--reverse link resource to aws_resource--><g id="link_resource_aws_resource"><path codeLine="49" d="M335,336.18 C335,381.21 335,408.35 335,438.52 " fill="none" id="resource-backto-aws_resource" style="stroke:#FFAF37;stroke-width:2.0;"/><polygon fill="none" points="335,318.18,329,336.18,341,336.18,335,318.18" style="stroke:#FFAF37;stroke-width:2.0;"/></g><!--SRC=[bLHTQzim57tthn3qBSoGh6nfnXYqWRAzbB7khGnp8rqb8h9ahkG4x-E_Juhx8N-afc_cdADxphaItYc13ClADwp4SeFaChTNfWA2abqJsUFQQaliGagGbyi-UMkDdnJSGOdiA-e3UiMXh_YvKtnlq3dsFg5kWE-tP6iZsl6UmBX0eV69Qgt1kMllIMrgZqaOiTfSITbNzeTUN8h5yYCEP9O4qgDaFf-BnQelcRHwjVUpubxzHhP8btPdFGvY3YnEgbTJHaKISb3qYJ-RyJi8eSoMVKYm7sqcCaWT_7u7mXwZMe9sgOtpI6XzK-5wq0fNLq8kHyNVpeap7bV7uEWAhcqj98KE1HfEJUMLDU7Jg_2M_sIpcLIeHL613sEDcyq-1GCA8Hz-1R8YUmXFdmebNfY8rnkjUB77fily6tTkFJGUKASfmdIfD2OnpaaARiioXEw4c3ZIhwlmr6vgAQ5tseBGsPfu6nB8Z9JjIhOO9Q8cY4CZubNPOk0nVWUCZs2z5OVxxWB1onV0UVW7z1nEJ5t5MJsc7F4nq4BFWprisucAnsD0pKFBlNlKn8syxKRp_ClaehFEUZ__pVFyRUyc6pdy16N_0G00]--></g></svg>

<svg xmlns="http://www.w3.org/2000/svg" width="670" height="927" viewBox="0 0 670 927"><rect width="326" height="126.68" x="172" y="794.23" fill="#3D176E" rx="2.5" ry="2.5" style="stroke:#000d19;stroke-width:.5"/><circle cx="187" cy="814.125" r="11" fill="#ADD1B2" style="stroke:#181818;stroke-width:1"/><path d="M189.969 819.765q-.578.297-1.219.438-.64.156-1.344.156-2.5 0-3.828-1.64-1.312-1.657-1.312-4.782t1.312-4.781q1.328-1.656 3.828-1.656.703 0 1.344.156.656.156 1.219.453v2.719q-.625-.578-1.219-.844-.594-.281-1.219-.281-1.344 0-2.031 1.078-.687 1.062-.687 3.156t.687 3.172q.688 1.062 2.031 1.062.625 0 1.219-.265.594-.281 1.219-.86z"/><text x="206" y="820.01" fill="#D9B8FF" font-family="Helvetica" font-size="17" textLength="284">aws_cloudfront_encryption_entity</text><path d="M173 834.019h324" style="stroke:#000d19;stroke-width:.5"/><text x="183" y="856.014" fill="#D9B8FF" font-family="sans-serif" font-size="14" font-weight="bold" textLength="108">field_patterns</text><text x="291" y="856.014" fill="#D9B8FF" font-family="sans-serif" font-size="14" textLength="58">: string[]</text><text x="183" y="882.311" fill="#D9B8FF" font-family="sans-serif" font-size="14" font-weight="bold" textLength="88">provider_id</text><text x="271" y="882.311" fill="#D9B8FF" font-family="sans-serif" font-size="14" textLength="48">: string</text><text x="183" y="908.608" fill="#D9B8FF" font-family="sans-serif" font-size="14" font-weight="bold" textLength="103">public_key_id</text><text x="286" y="908.608" fill="#D9B8FF" font-family="sans-serif" font-size="14" textLength="48">: string</text><rect width="656" height="100.383" x="7" y="633.85" fill="#3D176E" rx="2.5" ry="2.5" style="stroke:#000d19;stroke-width:.5"/><circle cx="135.25" cy="653.745" r="11" fill="#ADD1B2" style="stroke:#181818;stroke-width:1"/><path d="M138.219 659.385q-.578.297-1.219.438-.64.156-1.344.156-2.5 0-3.828-1.64-1.312-1.657-1.312-4.782t1.312-4.781q1.328-1.656 3.828-1.656.703 0 1.344.156.656.156 1.219.453v2.719q-.625-.578-1.219-.844-.594-.281-1.219-.281-1.344 0-2.031 1.078-.687 1.062-.687 3.156t.687 3.172q.688 1.062 2.031 1.062.625 0 1.219-.265.594-.281 1.219-.86z"/><text x="160.75" y="659.63" fill="#D9B8FF" font-family="Helvetica" font-size="17" textLength="381">aws_cloudfront_field_level_encryption_profile</text><path d="M8 673.639h654" style="stroke:#000d19;stroke-width:.5"/><text x="18" y="695.634" fill="#D9B8FF" font-family="sans-serif" font-size="14" font-weight="bold" textLength="308">field_level_encryption_profile_comment</text><text x="326" y="695.634" fill="#D9B8FF" font-family="sans-serif" font-size="14" textLength="48">: string</text><text x="18" y="721.931" fill="#D9B8FF" font-family="sans-serif" font-size="14" font-weight="bold" textLength="386">field_level_encryption_profile_encryption_entities</text><text x="404" y="721.931" fill="#D9B8FF" font-family="sans-serif" font-size="14" textLength="248">: aws_cloudfront_encryption_entity[]</text><rect width="155" height="74.086" x="257.5" y="438.76" fill="#3D176E" rx="2.5" ry="2.5" style="stroke:#000d19;stroke-width:.5"/><circle cx="272.5" cy="458.654" r="11" fill="#ADD1B2" style="stroke:#181818;stroke-width:1"/><path d="M275.469 464.295q-.578.297-1.219.438-.64.156-1.344.156-2.5 0-3.828-1.64-1.312-1.657-1.312-4.782t1.312-4.781q1.328-1.656 3.828-1.656.703 0 1.344.156.656.156 1.219.453v2.719q-.625-.579-1.219-.844-.594-.281-1.219-.281-1.344 0-2.031 1.078-.687 1.062-.687 3.156t.687 3.172q.688 1.062 2.031 1.062.625 0 1.219-.265.594-.281 1.219-.86z"/><text x="291.5" y="464.54" fill="#D9B8FF" font-family="Helvetica" font-size="17" textLength="113">aws_resource</text><path d="M258.5 478.549h153" style="stroke:#000d19;stroke-width:.5"/><text x="268.5" y="500.544" fill="#D9B8FF" font-family="sans-serif" font-size="14" font-weight="bold" textLength="26">arn</text><text x="294.5" y="500.544" fill="#D9B8FF" font-family="sans-serif" font-size="14" textLength="48">: string</text><rect width="227" height="310.758" x="221.5" y="7" fill="#3D176E" rx="2.5" ry="2.5" style="stroke:#000d19;stroke-width:.5"/><circle cx="290.25" cy="26.895" r="11" fill="#ADD1B2" style="stroke:#181818;stroke-width:1"/><path d="M293.219 32.535q-.578.297-1.219.438-.64.156-1.344.156-2.5 0-3.828-1.64-1.312-1.657-1.312-4.782t1.312-4.781q1.328-1.656 3.828-1.656.703 0 1.344.156.656.156 1.219.453v2.719q-.625-.578-1.219-.844-.594-.281-1.219-.281-1.344 0-2.031 1.078-.687 1.062-.687 3.156t.687 3.172q.688 1.062 2.031 1.062.625 0 1.219-.265.594-.281 1.219-.86z"/><text x="315.75" y="32.78" fill="#D9B8FF" font-family="Helvetica" font-size="17" textLength="71">resource</text><path d="M222.5 46.789h225" style="stroke:#000d19;stroke-width:.5"/><text x="232.5" y="68.784" fill="#D9B8FF" font-family="sans-serif" font-size="14" font-weight="bold" textLength="29">age</text><text x="261.5" y="68.784" fill="#D9B8FF" font-family="sans-serif" font-size="14" textLength="66">: duration</text><text x="232.5" y="95.081" fill="#D9B8FF" font-family="sans-serif" font-size="14" font-weight="bold" textLength="43">atime</text><text x="275.5" y="95.081" fill="#D9B8FF" font-family="sans-serif" font-size="14" textLength="70">: datetime</text><text x="232.5" y="121.378" fill="#D9B8FF" font-family="sans-serif" font-size="14" font-weight="bold" textLength="43">ctime</text><text x="275.5" y="121.378" fill="#D9B8FF" font-family="sans-serif" font-size="14" textLength="70">: datetime</text><text x="232.5" y="147.675" fill="#D9B8FF" font-family="sans-serif" font-size="14" font-weight="bold" textLength="14">id</text><text x="246.5" y="147.675" fill="#D9B8FF" font-family="sans-serif" font-size="14" textLength="48">: string</text><text x="232.5" y="173.972" fill="#D9B8FF" font-family="sans-serif" font-size="14" font-weight="bold" textLength="33">kind</text><text x="265.5" y="173.972" fill="#D9B8FF" font-family="sans-serif" font-size="14" textLength="48">: string</text><text x="232.5" y="200.269" fill="#D9B8FF" font-family="sans-serif" font-size="14" font-weight="bold" textLength="90">last_access</text><text x="322.5" y="200.269" fill="#D9B8FF" font-family="sans-serif" font-size="14" textLength="66">: duration</text><text x="232.5" y="226.565" fill="#D9B8FF" font-family="sans-serif" font-size="14" font-weight="bold" textLength="90">last_update</text><text x="322.5" y="226.565" fill="#D9B8FF" font-family="sans-serif" font-size="14" textLength="66">: duration</text><text x="232.5" y="252.862" fill="#D9B8FF" font-family="sans-serif" font-size="14" font-weight="bold" textLength="48">mtime</text><text x="280.5" y="252.862" fill="#D9B8FF" font-family="sans-serif" font-size="14" textLength="70">: datetime</text><text x="232.5" y="279.159" fill="#D9B8FF" font-family="sans-serif" font-size="14" font-weight="bold" textLength="43">name</text><text x="275.5" y="279.159" fill="#D9B8FF" font-family="sans-serif" font-size="14" textLength="48">: string</text><text x="232.5" y="305.456" fill="#D9B8FF" font-family="sans-serif" font-size="14" font-weight="bold" textLength="34">tags</text><text x="266.5" y="305.456" fill="#D9B8FF" font-family="sans-serif" font-size="14" textLength="171">: dictionary[string, string]</text><path fill="none" d="M335 734.65v53.28" style="stroke:#ffaf37;stroke-width:2"/><path fill="#FFAF37" d="m335 793.93 4-9-4 4-4-4z" style="stroke:#ffaf37;stroke-width:2"/><path fill="none" d="M335 531.2v102.27m0-120.27-6 18h12zm0-177.02v102.34m0-120.34-6 18h12z" style="stroke:#ffaf37;stroke-width:2"/></svg>
